!!!COM:	Bach, Johann Sebastian
!!!CDT:	1685/02/21/-1750/07/28/
!!!OTL@@DE:	Befiehl du deine Wege
!!!SCT:	BWV 161/6
!!!PC#:	270
!!!AGN:	chorale
**kern	**kern	**kern	**kern
*ICvox	*ICvox	*ICvox	*ICvox
*Ibass	*Itenor	*Ialto	*Isoprn
*I"Bass	*I"Tenor	*I"Alto	*I"Soprano
*>[A,A,B]	*>[A,A,B]	*>[A,A,B]	*>[A,A,B]
*>norep[A,B]	*>norep[A,B]	*>norep[A,B]	*>norep[A,B]
*>A	*>A	*>A	*>A
*clefF4	*clefGv2	*clefG2	*clefG2
*k[]	*k[]	*k[]	*k[]
*a:	*a:	*a:	*a:
*M4/4	*M4/4	*M4/4	*M4/4
*met(c)	*met(c)	*met(c)	*met(c)
*MM100	*MM100	*MM100	*MM100
4E	8GL	4e	4e
.	8BJ	.	.
=1	=1	=1	=1
4F	8AL	8eL	4a
.	8cJ	8dJ	.
4G	4B	4d	4g
8AAL	8cL	4d	4f
8BBJ	8GJ	.	.
4C	4G	8cL	4e
.	.	8BJ	.
=2	=2	=2	=2
2FF	8AL	2A	2d
.	8F	.	.
.	8D	.	.
.	8dJ	.	.
4EE;	4G#;	4B;	4e;
4E	4G#	4e	4b
=3	=3	=3	=3
8AL	4.A	4e	4cc
8GnXJ	.	.	.
8FL	.	4f	4cc
8EJ	8c	.	.
8DL	8dL	4f	4b
8CJ	8DJ	.	.
4E	8GL	8eL	4b
.	8FJ	8dJ	.
=4	=4	=4	=4
2.AA;	4E	4c#	2.a;
.	8.FL	4d	.
.	16GJk	.	.
.	4A;	4c;	.
=:|!	=:|!	=:|!	=:|!
*>B	*>B	*>B	*>B
4A	4e	8aL	4cc
.	.	8gJ	.
=5	=5	=5	=5
4D	4d	4f	8bL
.	.	.	16ccL
.	.	.	16ddJJ
4E	8dL	4e	4g
.	8cJ	.	.
4F	4c	8eL	4a
.	.	8cJ	.
4D	4d	4d	4b
=6	=6	=6	=6
2C	4G	8e	2cc
.	.	4g	.
.	8AL	.	.
.	8BJ	8f	.
4C;	4c;	4e;	4cc;
4E	4c	4c	4g
=7	=7	=7	=7
4F	4F	4c	4a
4C	4E	8cL	4g
.	.	8B-J	.
4C#	4E	4A	4a
4D	8FL	8AL	4f
.	8GJ	8BJ	.
=8	=8	=8	=8
2AA;	2A;	2c#;	2e;
4r	4ry	4ry	4r
4AA	4A	4e	4cc
=9	=9	=9	=9
4E	4G	4e	4b
4BB	4B	4d	4dd
8CnXL	8BL	8eL	4cc
8DJ	8AJ	8f#J	.
4E	8eL	8gL	4b
.	8dJ	8g#J	.
=10	=10	=10	=10
2F	8cL	4a	2a
.	8c#J	.	.
.	4d	4A	.
4E;	4G#;	4e;	4b;
4A	8AL	8cnXL	4e
.	8GJ	8c#J	.
=11	=11	=11	=11
4D	8FL	8AL	4f
.	8GJ	8BJ	.
8AAL	4A	4cnX	4e
8GGJ	.	.	.
8FFL	4A	4d	4d
8FF#J	.	.	.
4GG	4B	4d	8gL
.	.	.	8fJ
=12	=12	=12	=12
4GG#	8B	8dL	2.e;
.	4E	16cL	.
.	.	16BJJ	.
4AA	.	8cL	.
.	8c	16BL	.
.	.	16AJJ	.
4E;	8cL	4G#;	.
.	8B;J	.	.
==	==	==	==
*-	*-	*-	*-
!!!hum2abc: -Q ''
!!!title: @{PC#}. @{OTL@@DE}
!!!YOR1: 371 vierstimmige Choralges&auml;nge von Johann Sebastian Bach, 
!!!YOR2: 4th ed. by Alfred D&ouml;rffel (Leipzig: Breitkopf und H&auml;rtel, 
!!!YOR2: c.1875). 178 pp. Plate "V.A.10".  reprint: J.S. Bach, 371 Four-Part 
!!!YOR4: Chorales (New York: Associated Music Publishers, Inc., c.1940).
!!!SMS: B&H, 4th ed, Alfred D&ouml;rffel, c.1875, plate V.A.10
!!!EED:  Craig Stuart Sapp
!!!EEV:  2009/05/22
